X: 170
T: Shins Around the Fire
T: Jig, D
L: 1/16
M: 6/8
K: D
|: B2A2F2 A2D2D2| F2E2F2 D2F2A2| B2A2F2 A2D2D2| F2E2E2 E2F2A2| B2A2F2 A2F2E2| D2f2e2 d4e2| f2e2d2 B2A2F2| A2F2E2 E2F2A2:| 
|: d2f2e2 d4B2| A2B2A2 A2F2A2| d2f2e2 d4f2| g2f2e2 f2d2B2| d2f2e2 d4B2| A2B2A2 A2F2A2| f2e2d2 A2B2c2| d2A2F2 E2F2A2:| 
D: Wendy MacIsaac, That's What You Get, WMT004
